X: 3
T:The Sloe
M:4/4
L:1/4
Q:100
C:Traditional
R:Polka
K:D
|:A|dAde|f>edc|BAB/c/d/B/|AA/G/FA|dAde|f>edc|BABc|d2d:|!
|:A|BAFA|BAFd/d/|dc/c/cB/B/|BAAd/d/|dc/c/ce/e/|edde|feBc|d2d:|
